X:21103 
T:KING OF THE CLANS (reel), The
B:DMI.0835
Z:Nordberg/Black
N:No repeats in source.
R:reel
%Q:1/4=180
M:C|
L:1/8
K:G
B|d2GA Bdge|dedB AGEG|DGBG dGBG|cege dcBc|
dGBd gdBd|gdbg agef|gage dBge|dBAc BGG:|
f|g2bg egdf|gdBG AGEG|DGBG dGBG|cege dcBd|
g2bg edge|dBGB AGEG|DGBd gede|dBAc BGG:|

%%%

